X: 3
T: Mocny Boże, jakoż ich wiele powstało,
C: Mikołaj Gomółka
%%abc-version 2.0
%%abcx-abcm2ps-target-version 5.9.1 (29 Sep 2008)
%%abc-creator hum2abc beta
%%abcx-conversion-date 2021/10/04 07:59:09
%%abc-edited-by Anna Matuszewska
%%abcx-initial-encoding-date 2020-02-02
%%humdrum-veritas 293525376
%%humdrum-veritas-data 4024732009
%%linebreak <none>
%%barnumbers 0
L: 1/4
M: C|
N: Derived from pl-wn--sd-xvi-qu-273--003_gomolka-mikolaj--mocny-boze-jakoz-ich-wiele-powstalo.krn
%%staves [1 2 3 4]
V: 1
V: 2 clef=alto
V: 3 clef=alto
V: 4 clef=bass
K: C
[V:1] E8 [|] 
[V:2] ^C8 [|] 
[V:3] A,8 [|] 
[V:4] A,,8 [|] 
[V:1] F4F4 [|] 
[V:2] D4D4 [|] 
[V:3] A,4A,4 [|] 
[V:4] D,4D,4 [|] 
[V:1] E2A2G2A2 [|] 
[V:2] B,2E2E2E2 [|] 
[V:3] ^G,2A,2B,2C2 [|] 
[V:4] E,2A,,2E,2A,,2 [|] 
[V:1] F4E2E4 [|] 
[V:2] FGA4^G2 [|] 
[V:3] D2>C2B,2B,2 [|] 
[V:4] D,4E,2E,2 [|] 
[V:1] D2E2B2 [|] 
[V:2] A4^G2G2 [|] 
[V:3] A,4B,2E3 [|] 
[V:4] F,4E,2E,2 [|] 
[V:1] c6B2 [|] 
[V:2] A2E2E2E4 [|] 
[V:3] DCB,A,2B,2 [|] 
[V:4] A,6^G,2 [|] 
[V:1] A2A2G2d2 [|] 
[V:2] D2E2^F2 [|] 
[V:3] C2A,2B,2B,2 [|] 
[V:4] A,2F,2E,2B,,2 [|] 
[V:1] c2B2>A2A4 [|] 
[V:2] EFG2E2F2 [|] 
[V:3] E2D2C2DC [|] 
[V:4] C,2G,,2A,,2D,2 [|] 
[V:1] G2A2c2 [|] 
[V:2] E2>D2C2C2 [|] 
[V:3] B,A,B,2A,2E2 [|] 
[V:4] E,4A,,2A,2 [|] 
[V:1] c2B2A2A2 [|] 
[V:2] A,2B,2E2F2 [|] 
[V:3] F2D2C2D2 [|] 
[V:4] F,2G,2A,2D,2 [|] 
[V:1] G2A2EFGE [|] 
[V:2] E2E2E2E2 [|] 
[V:3] B,2C2C3B, [|] 
[V:4] E,2A,,2E,2C,2 [|] 
[V:1] FGABc2B2 [|] 
[V:2] CB,CDEFG2 [|] 
[V:3] A,2A,2G,2G,2 [|] 
[V:4] F,2F,2E,2E,2 [|] 
[V:1] d2c2B4 [|] 
[V:2] F2E2>F2GE [|] 
[V:3] A,B,CDE2B,2 [|] 
[V:4] D,2A,4G,2 [|] 
[V:1] A2G2c2B3 [|] 
[V:2] F2G2G2F3 [|] 
[V:3] CA,CDE2D3 [|] 
[V:4] F,2E,2C,2D,2 [|] 
[V:1] AAG/F/GA2G [|] 
[V:2] ED2E3D [|] 
[V:3] CCB,/A,/B,CB,2 [|] 
[V:4] F,2F,2E,4 [|] 
[V:1] !fermata!A8 |]  
[V:2] ^C8 |]  
[V:3] !fermata!A,8 |]  
[V:4] !fermata!A,,8 |]  


